dist/images/svg/sprite/icon-whatsapp.svg

<svg width="25" height="24" viewBox="0 0 25 24" fill="none" xmlns="http://www.w3.org/2000/svg">
<g opacity="0.6" clip-path="url(#clip0_22_1482)">
<path fill-rule="evenodd" clip-rule="evenodd" d="M12.5 0C19.1274 0 24.5 5.37258 24.5 12C24.5 18.6274 19.1274 24 12.5 24C5.87258 24 0.5 18.6274 0.5 12C0.5 5.37258 5.87258 0 12.5 0ZM12.9941 4.5625C14.8104 4.5625 16.5887 5.2814 17.8752 6.60575C19.1617 7.89225 19.8806 9.63275 19.8806 11.4868C19.8806 15.3085 16.7779 18.449 12.9563 18.449C11.8212 18.449 10.686 18.1841 9.66444 17.6166L5.99414 18.5625L6.97794 14.9679C6.41039 13.9085 6.06984 12.7354 6.06984 11.5246C6.03199 7.70305 9.13469 4.5625 12.9941 4.5625ZM10.0806 16.4814C10.9509 17.0112 11.9725 17.276 12.9941 17.276C14.0536 17.276 15.1131 16.9733 15.9833 16.4058C18.7077 14.7409 19.5022 11.222 17.8374 8.49765C16.1725 5.7733 12.6536 4.97871 9.92929 6.6436C7.20494 8.30845 6.41039 11.8652 8.07524 14.5517L8.22659 14.7787L7.65904 16.9354L9.85359 16.3679L10.0806 16.4814ZM15.9077 12.8868L16.3239 13.076C16.3995 13.1139 16.4374 13.1517 16.4374 13.1517V13.4165L16.4373 13.4172C16.3995 13.6062 16.3617 13.7951 16.286 13.9463C16.2482 14.0219 16.1725 14.0976 16.0968 14.1733C16.059 14.2111 16.0212 14.2395 15.9833 14.2679C15.9455 14.2963 15.9077 14.3246 15.8698 14.3625L15.7941 14.4382C15.7517 14.4807 15.7092 14.4993 15.66 14.5209C15.6216 14.5377 15.5791 14.5563 15.5293 14.5896C15.3779 14.6652 15.1509 14.7409 14.9617 14.7409H14.5833C14.5266 14.722 14.4604 14.7125 14.3941 14.703C14.3279 14.6936 14.2617 14.6841 14.2049 14.6652C13.1833 14.4004 12.2752 13.9085 11.4806 13.2274C11.4312 13.1532 11.3657 13.0953 11.2946 13.0324C11.2567 12.9989 11.2173 12.9641 11.1779 12.9247L11.0266 12.7733C10.4212 12.2058 9.96714 11.5625 9.62659 10.8436L9.58874 10.7301C9.47524 10.4652 9.39954 10.1625 9.39954 9.8598C9.39954 9.4436 9.55089 9.02735 9.81579 8.6868C9.85362 8.64897 9.88199 8.61114 9.91037 8.5733C9.93874 8.53546 9.96712 8.49762 10.0049 8.4598C10.0428 8.44087 10.0806 8.4125 10.1185 8.38412C10.1563 8.35575 10.1941 8.32738 10.232 8.30845L10.2698 8.2706C10.3077 8.2706 10.3455 8.26114 10.3833 8.25167C10.4212 8.24221 10.459 8.23275 10.4968 8.23275H10.7995H10.9131C11.0266 8.2706 11.1022 8.30845 11.1779 8.42195C11.2914 8.649 11.7455 9.6706 11.7833 9.8598C11.8212 9.9733 11.7833 10.1247 11.7077 10.2382C11.6698 10.2761 11.6414 10.3234 11.613 10.3707C11.5847 10.418 11.5563 10.4652 11.5185 10.503C11.4049 10.6165 11.2536 10.8057 11.2536 10.8057C11.2158 10.8436 11.2158 10.9193 11.2158 10.995C11.2302 11.0238 11.2391 11.0472 11.2468 11.0672C11.2591 11.0995 11.268 11.1229 11.2914 11.1463L11.3293 11.2219C11.5185 11.5625 11.7833 11.8652 12.0482 12.13C12.086 12.1679 12.1333 12.2057 12.1806 12.2436C12.2279 12.2814 12.2752 12.3193 12.3131 12.3571C12.6158 12.6598 12.9941 12.8868 13.4104 13.076L13.5995 13.1517C13.6374 13.1896 13.7131 13.2274 13.7509 13.2274H13.7887C13.8644 13.2274 13.9401 13.1895 13.9779 13.1138C14.5077 12.5084 14.5455 12.4706 14.5455 12.4706C14.6212 12.4327 14.6968 12.3949 14.8104 12.3949C14.8293 12.3949 14.8482 12.4044 14.8671 12.4138C14.886 12.4233 14.905 12.4327 14.9239 12.4327C15.3022 12.622 15.9077 12.8868 15.9077 12.8868Z" fill="white"/>
</g>
<defs>
<clipPath id="clip0_22_1482">
<rect width="24" height="24" fill="white" transform="translate(0.5)"/>
</clipPath>
</defs>
</svg>

<svg width="25" height="24" fill="none" xmlns="http://www.w3.org/2000/svg"><g opacity=".6" clip-path="url(#a)"><path fill-rule="evenodd" clip-rule="evenodd" d="M12.5 0c6.627 0 12 5.373 12 12s-5.373 12-12 12-12-5.373-12-12 5.373-12 12-12Zm.494 4.563c1.816 0 3.595.718 4.881 2.043a6.867 6.867 0 0 1 2.006 4.88c0 3.822-3.103 6.963-6.925 6.963a6.757 6.757 0 0 1-3.292-.832l-3.67.945.984-3.594c-.568-1.06-.908-2.233-.908-3.443-.038-3.822 3.065-6.963 6.924-6.963ZM10.081 16.48c.87.53 1.892.795 2.913.795 1.06 0 2.12-.303 2.99-.87 2.724-1.665 3.518-5.184 1.853-7.908-1.665-2.725-5.183-3.52-7.908-1.854-2.724 1.664-3.519 5.221-1.854 7.908l.152.227-.568 2.156 2.195-.567.227.113Zm5.827-3.594.416.189a.472.472 0 0 1 .113.076v.265c-.038.19-.075.378-.151.53-.038.075-.114.15-.19.226a1 1 0 0 1-.113.095c-.038.028-.075.057-.113.095l-.076.075c-.042.043-.085.061-.134.083a.777.777 0 0 0-.13.069 1.404 1.404 0 0 1-.568.15h-.379a1.119 1.119 0 0 0-.189-.037 1.113 1.113 0 0 1-.19-.038 6.76 6.76 0 0 1-2.723-1.438c-.05-.074-.115-.132-.186-.195-.038-.033-.078-.068-.117-.107l-.151-.152a6.303 6.303 0 0 1-1.4-1.93l-.038-.113a2.245 2.245 0 0 1-.19-.87c0-.416.152-.833.417-1.173.038-.038.066-.076.094-.114.029-.038.057-.075.095-.113.038-.02.076-.048.113-.076.038-.028.076-.057.114-.076l.038-.037c.038 0 .075-.01.113-.02.038-.009.076-.018.114-.018h.416c.114.038.19.075.265.189.113.227.567 1.249.605 1.438.038.113 0 .265-.075.378-.038.038-.067.085-.095.133a.667.667 0 0 1-.095.132c-.113.114-.264.303-.264.303-.038.038-.038.113-.038.189.014.029.023.052.03.072.013.033.022.056.045.08l.038.075c.19.34.454.643.72.908.037.038.084.076.132.114.047.037.094.075.132.113.303.303.681.53 1.097.719l.19.076a.287.287 0 0 0 .15.075h.039a.208.208 0 0 0 .189-.113c.53-.606.568-.643.568-.643a.546.546 0 0 1 .264-.076c.02 0 .038.01.057.019.019.01.038.019.057.019.378.189.984.454.984.454Z" fill="#fff"/></g><defs><clipPath id="a"><path fill="#fff" transform="translate(.5)" d="M0 0h24v24H0z"/></clipPath></defs></svg>
